X:7
T:Pease upon a Trencher   
O:No 7 Page 3 William Clarke of Feltwell  MS 1858
I:abc2nwc
M:2/4
L:1/16
K:C
c2G2c2d2|e4e4|d2c2d2e2|f4f4|
c2d2e2f2|g2a2g2e2|f2d2g2e2|c4c4:|
|:c'2c2c2d2|e4d2c2|d'2d2d2e2|f4e2d2|
c2d2e2f2|g2c2g2e2|f2d2g2e2|c4c4:|


